icons/arrow-expand-1-filled.svg

<svg viewBox="0 0 24 24"><path fill="currentColor" fill-rule="evenodd" d="M18 2.4a3.6 3.6 0 0 1 3.6 3.6v12a3.6 3.6 0 0 1-3.6 3.6h-12a3.6 3.6 0 0 1-3.6-3.6v-12a3.6 3.6 0 0 1 3.6-3.6zm-12 2.6a1 1 0 0 0-1 1v3a1 1 0 0 0 2 0v-.6l1.7 1.7a1 1 0 0 0 1.4-1.4l-1.7-1.7h.6a1 1 0 0 0 0-2zm9 2h.6l-1.7 1.7a1 1 0 0 0 1.4 1.4l1.7-1.7v.6a1 1 0 1 0 2 0v-3a1 1 0 0 0-1-1h-3a1 1 0 1 0 0 2Zm-5 8.3a1 1 0 0 0-1.3-1.4l-1.7 1.7v-.6a1 1 0 1 0-2 0v3a1 1 0 0 0 1 1h3a1 1 0 1 0 0-2h-.6zm5.3-1.4a1 1 0 0 0-1.4 1.4l1.7 1.7h-.6a1 1 0 1 0 0 2h3a1 1 0 0 0 1-1v-3a1 1 0 1 0-2 0v.6z" clip-rule="evenodd"/></svg>

<svg viewBox="0 0 24 24"><path fill="currentColor" fill-rule="evenodd" d="M18 2.4A3.6 3.6 0 0 1 21.6 6v12a3.6 3.6 0 0 1-3.6 3.6H6A3.6 3.6 0 0 1 2.4 18V6A3.6 3.6 0 0 1 6 2.4zM6 5a1 1 0 0 0-1 1v3a1 1 0 0 0 2 0v-.6l1.7 1.7A1 1 0 0 0 10 8.7L8.4 7H9a1 1 0 0 0 0-2zm9 2h.6l-1.7 1.7a1 1 0 0 0 1.4 1.4L17 8.4V9a1 1 0 1 0 2 0V6a1 1 0 0 0-1-1h-3a1 1 0 1 0 0 2m-5 8.3A1 1 0 0 0 8.8 14L7 15.6V15a1 1 0 1 0-2 0v3a1 1 0 0 0 1 1h3a1 1 0 1 0 0-2h-.6zm5.3-1.4a1 1 0 0 0-1.4 1.4l1.7 1.7H15a1 1 0 1 0 0 2h3a1 1 0 0 0 1-1v-3a1 1 0 1 0-2 0v.6z" clip-rule="evenodd"/></svg>
